X: 7
T:The Racehorse
% Nottingham Music Database
S:Toby Bennett
M:9/8
K:Bb
"Gm"B2B BAG "D7"A3|"Gm"B2B BAG "D7"ABc|"Gm"B2B BAG "D7"ABc|"Gm"d2d dcB "F"c3|
"Gm"d2d dcB "Cm"cde|"Gm"d2d dcB "Cm"cde|"Gm"def "Cm"edc "Gm"BAG|\
"D7"A2A ABc "Gm"d3:|
|"Gm"d2d B2B G2G|"D"^F2A d2F A2d|^F2A d2A d3|"Gm"d2d B2B G2G|\
"D7"^FGA FGA"Gm"G3:|
|"D"^FGA "D7"d2c "Gm"B2A|GAB GAB GAB|"Gm"G2B d2G B2d|
"D"^FGA "D7"d2c B2A|\
M:6/8
"Gm"c2B A2G|B2A G2^F|"D7"A2G A3||


